X:030
L:1/16
M:2/4
K:G
(AB) | .c2(ec) .B2(dB) | {/B}AGAB AGEF | GAGE DEGB | {/B}AGAB AGEB |
.c2(ec) .B2(dB) | {/B}AGAB AGEF | GAGE DEGA | BGAF G2 ::
{/f}gfge dBGB | cABG AGEF | GAGE DEGA | BGAF G2 :|]

